public/img/users/samsung.svg

<svg width="1184" height="200" viewBox="0 0 1184 200" fill="none" xmlns="http://www.w3.org/2000/svg">
<path d="M50 138.031V126.156H91.6042V141.26C91.572 143.245 91.9652 145.213 92.7574 147.033C93.5497 148.853 94.7225 150.481 96.197 151.81C97.6715 153.138 99.4135 154.135 101.306 154.734C103.198 155.333 105.196 155.52 107.167 155.281C110.533 155.738 113.947 154.913 116.733 152.97C119.519 151.027 121.474 148.108 122.208 144.792C123.322 140.992 123.228 136.941 121.938 133.198C113.885 112.948 58.8646 103.781 51.875 72.2188C50.452 65.2851 50.3636 58.1438 51.6146 51.1771C55.9062 25.8333 78.1771 16.6667 105.823 16.6667C127.833 16.6667 158.167 21.7917 158.167 55.7708V66.8333H119.521V57.125C119.638 55.2114 119.339 53.2953 118.644 51.5082C117.95 49.7212 116.878 48.1056 115.5 46.7724C114.122 45.4393 112.472 44.4202 110.663 43.7852C108.854 43.1501 106.93 42.9143 105.021 43.0938C101.762 42.7349 98.4868 43.6189 95.8509 45.5693C93.215 47.5197 91.412 50.3928 90.8021 53.6146C90.3677 56.3046 90.4597 59.0534 91.0729 61.7083C95.625 79.7708 154.417 89.4896 160.865 122.125C162.476 130.583 162.564 139.261 161.125 147.75C157.365 173.625 134.281 183.333 106.375 183.333C77.0833 183.333 50 172.813 50 138.031ZM554.083 137.5V125.625H595.156V140.458C595.092 142.425 595.453 144.382 596.214 146.197C596.976 148.011 598.12 149.639 599.569 150.971C601.018 152.302 602.737 153.304 604.61 153.91C606.482 154.516 608.463 154.71 610.417 154.479C613.752 154.977 617.153 154.197 619.939 152.297C622.726 150.397 624.693 147.516 625.448 144.229C626.561 140.519 626.47 136.551 625.188 132.896C617.396 112.948 562.906 103.729 555.938 72.2188C554.512 65.377 554.42 58.3245 555.667 51.4479C559.99 26.375 582.292 17.2083 609.375 17.2083C631.125 17.2083 661.177 22.6042 661.177 56.0417V66.8333H622.802V57.3958C622.924 55.5058 622.639 53.6116 621.965 51.8416C621.291 50.0717 620.244 48.4674 618.895 47.1376C617.547 45.8077 615.928 44.7835 614.149 44.1343C612.37 43.4851 610.471 43.2262 608.583 43.375C605.383 42.9507 602.143 43.7807 599.542 45.6913C596.94 47.6018 595.178 50.4448 594.625 53.625C594.186 56.3143 594.275 59.0632 594.885 61.7188C599.177 79.7813 657.385 89.2292 663.875 121.583C665.485 129.95 665.573 138.539 664.135 146.938C660.375 172.833 637.562 182.271 609.969 182.271C580.938 182.292 554.083 171.74 554.083 137.5ZM701.177 143.177C700.803 139.77 700.716 136.338 700.917 132.917V21.25H740.104V136.406C740.053 138.389 740.14 140.373 740.365 142.344C741.239 145.591 743.16 148.459 745.829 150.505C748.498 152.55 751.767 153.659 755.13 153.659C758.493 153.659 761.762 152.55 764.432 150.505C767.101 148.459 769.021 145.591 769.896 142.344C770.128 140.374 770.219 138.389 770.167 136.406V21.25H809.375V132.896C809.375 135.865 809.104 141.531 809.104 143.156C806.427 172.323 783.604 181.698 755.156 181.698C726.708 181.698 703.865 172.271 701.177 143.156V143.177ZM1023.82 141.552C1023.42 138.133 1023.24 134.692 1023.28 131.25V65.75C1023.28 63.0521 1023.54 58.1979 1023.81 55.4896C1027.3 26.375 1050.66 17.2083 1078.3 17.2083C1105.69 17.2083 1129.83 26.375 1132.53 55.5C1132.85 58.9102 1132.94 62.3384 1132.79 65.7604V70.8333H1093.6V62.25C1093.61 60.2587 1093.43 58.2711 1093.07 56.3125C1092.04 53.0244 1089.99 50.1511 1087.21 48.1111C1084.44 46.071 1081.08 44.9709 1077.64 44.9709C1074.19 44.9709 1070.83 46.071 1068.06 48.1111C1065.28 50.1511 1063.23 53.0244 1062.2 56.3125C1061.74 58.715 1061.57 61.1613 1061.67 63.6042V134.792C1061.62 136.775 1061.71 138.759 1061.94 140.729C1062.87 144.26 1065.03 147.344 1068.03 149.425C1071.03 151.507 1074.67 152.449 1078.3 152.083C1081.87 152.463 1085.45 151.52 1088.37 149.433C1091.29 147.346 1093.34 144.26 1094.14 140.76C1094.5 138.803 1094.59 136.805 1094.41 134.823V112.135H1078.57V89.4792H1133.33V131.25C1133.37 134.675 1133.19 138.098 1132.79 141.5C1130.11 169.813 1105.71 179.792 1078.3 179.792C1050.9 179.792 1026.5 169.844 1023.82 141.531V141.552ZM477.594 176.854L476.552 32.8438L449.677 176.854H410.49L383.906 32.8438L382.865 176.854H344.188L347.406 21.5208H410.49L430.083 142.885L449.677 21.5208H512.75L516.24 176.854H477.594ZM271.448 176.854L250.51 32.8438L229.031 176.854H187.167L215.625 21.5208H284.615L313.073 176.854H271.448ZM927.458 175.24L888.542 46.0625L890.688 175.229H852.562V21.5208H910L946.458 146.656L944.365 21.5208H982.75V175.25L927.458 175.24Z" fill="white"/>
</svg>

<svg xmlns="http://www.w3.org/2000/svg" fill="none" viewBox="0 0 1184 200">
    <path fill="#fff" d="M50 138v-11.8h41.6v15a14 14 0 0 0 9.7 13.5 14 14 0 0 0 5.9.6 13.5 13.5 0 0 0 15-10.5 19 19 0 0 0-.3-11.6c-8-20.3-63-29.4-70-61a56 56 0 0 1-.3-21c4.3-25.4 26.6-34.5 54.2-34.5 22 0 52.4 5 52.4 39v11.1h-38.7v-9.7a13.3 13.3 0 0 0-14.5-14 13 13 0 0 0-14.2 10.5 21 21 0 0 0 .3 8.1c4.5 18 63.3 27.8 69.8 60.4a72 72 0 0 1 .2 25.7c-3.7 25.8-26.8 35.5-54.7 35.5C77 183.3 50 172.8 50 138m504-.5v-11.9h41.2v14.9a14 14 0 0 0 4.4 10.5 14 14 0 0 0 10.8 3.5 13.4 13.4 0 0 0 15-10.3 18 18 0 0 0-.2-11.3c-7.8-20-62.3-29.2-69.3-60.7a54 54 0 0 1-.2-20.8c4.3-25 26.6-34.2 53.7-34.2 21.7 0 51.8 5.4 51.8 38.8v10.8h-38.4v-9.4a13 13 0 0 0-3.9-10.3 13 13 0 0 0-10.3-3.7 12.5 12.5 0 0 0-14 10.2 21 21 0 0 0 .3 8.1c4.3 18 62.5 27.5 69 59.9a71 71 0 0 1 .2 25.3c-3.7 26-26.5 35.4-54.1 35.4-29 0-56-10.6-56-44.8m147.2 5.7a61 61 0 0 1-.3-10.3V21.3h39.2v115.1a43 43 0 0 0 .3 6 15.3 15.3 0 0 0 29.5 0 42 42 0 0 0 .3-6V21.3h39.2v111.6l-.3 10.3c-2.7 29.1-25.5 38.5-54 38.5s-51.2-9.4-54-38.5zm322.6-1.6q-.6-5.3-.5-10.4V65.9c0-2.7.2-7.6.5-10.3 3.5-29.1 26.9-38.3 54.5-38.3 27.4 0 51.5 9.2 54.2 38.3q.5 5 .3 10.3v5h-39.2v-8.5q0-3-.5-6a16 16 0 0 0-5.9-8.2 16 16 0 0 0-9.6-3.1q-5.3 0-9.5 3.1a16 16 0 0 0-5.9 8.2 32 32 0 0 0-.5 7.3v71.2q0 3 .2 6a15 15 0 0 0 16.4 11.3c3.6.4 7.2-.6 10-2.7a15 15 0 0 0 5.8-8.6q.6-3 .3-6v-22.7h-15.8V89.5h54.7v41.8q0 5.1-.5 10.2c-2.7 28.3-27 38.3-54.5 38.3-27.4 0-51.8-10-54.5-38.3zm-546.2 35.3-1-144-27 144h-39.1l-26.6-144-1 144h-38.7l3.2-155.4h63L430.2 143l19.6-121.4h63l3.5 155.4zm-206.2 0-20.9-144-21.5 144h-41.8l28.4-155.4h69L313.1 177zm656-1.7L888.6 46.1l2.2 129.1h-38.1V21.5H910l36.5 125.2-2.1-125.2h38.4v153.8z"/>
</svg>
